X:1
T:Feuilles d'album
T:Adieux à Suzon
T:À Mr HERMANN-LÉON
T:Adieux à Suzon
T:Georges Bizet
T:Alfred de Musset
T:Feuilles d'album, No.2
T:OpenScore (CC0)
T:OpenScore (CC0)
T:OpenScore (CC0)
T:OpenScore (CC0)
T:OpenScore (CC0)
T:OpenScore (CC0)
T:OpenScore (CC0)
T:OpenScore (CC0)
T:OpenScore (CC0)
T:OpenScore (CC0)
T:OpenScore (CC0)
C:Georges Bizet
Z:Alfred de Musset
Z:OpenScore (CC0)
%%score ( 1 2 ) { ( 3 6 ) | ( 4 5 ) }
L:1/8
Q:1/4=112
M:2/4
K:D
V:1 treble nm="Voice"
V:2 treble 
V:3 treble nm="Piano"
V:6 treble 
V:4 bass 
V:5 bass 
V:1
"_Allegro moderato.""^Allegro moderato." z4 | z4 | z4 | z2 z3/2!mf! F/ | F2- F z/ G/ | %5
w: |||A-|dieu, _ Su-|
 A2- A z/ d/ | c3/2 B/ c3/2 e/ | d2 A z | A2 B c |!<(! !breath!d3 d!<)! | (f2"^dim." e) B | %11
w: zon, _ a-|dieu, ma ro- se|blon- de,|Qui m'as ai-|mé pen-|dant _ huit|
!p!"^portez la voix" (c4 | F3) G | A2 d2 | (c2{dc)} B3/2 c/ | d2 A z |!>(! f2 e-!>)!e/ z/ | %17
w: jours;|Les plus|courts plai-|sirs de ce|mon- de,|Sou- vent, *|
!<(! A2 B3/2 d/!<)! |!>(! c3 B!>)! | A2- A z |[Q:1/4=100]"^T" _B-!pp! B/ z/ B A | _B =c d3/2 e/ | %22
w: font les meil-|leurs a-|mours. _|Sais– je, au mo-|ment où je te|
!>(! (e3!>)! =f) | A2- A z | G2!<(! ^F G | !breath!A _B =c3/2 d/!<)! | %26
w: quit- *|te, _|Où m'en- traî-|ne mon astre er-|
[Q:1/4=112]"_a tempo"[Q:1/4=112]"^a tempo""^cresc." e4- |"^portez la voix" (e4 | %28
w: rant?|_|
!f!!>(! ^f3) e!>)! |!mp! d3!p! F | (G>F) G3/2 A/ | F2- F/ z/ A |"^cresc." e2 z c | d2- d/ z/ A | %34
w: Je m'en|vais pour-|tant, * ma pe-|ti- te, Bien|loin, bien|vi- te, Tou-|
 ((Bc)) (de) |!f! =f4- | =f2 z d |[Q:1/4=100]"^T""^dim." =f2 z!mf! d |[Q:1/4=90]"^T" =f2 z!p! d | %39
w: jours * cou- *|rant.|_ Bien|loin, bien|loin, bien|
 =f4- | =f z z3/2!mf![Q:1/4=80]"^T" d/ |!<(! (d4 | c7/2) d/!<)! | %43
w: vi-|te, tou-|jours|* cou-|
[Q:1/4=112]"_a tempo"!f![Q:1/4=112]"^a tempo" d4- | d2 z2 | z4 | z4 | z4 |"^avec passion" z2 z F | %49
w: rant.|_||||Je|
 F2 z F |!<(! ^G ^A B3/2 c/!<)! |!>(! d2 B!>)! z | !^!f4- | f2"^dim." e d | %54
w: pars, et|sur ma lèvre ar-|den- te|Brû-|* le~en- cor|
!<(! c F!<)!!>(! A3/2 ^G/!>)! | F2- F z |!mf! d2 e d | (c2 F) z |!>(! f2 e3/2 d/!>)! | d2 c z | %60
w: ton der- nier bai-|ser. _|En- tre mes|bras, _|chère im- pru-|den- te|
!p!!<(! c2 ^d2!<)! | (^e2[Q:1/4=90]"^T""^dim.""^dim."{fe)} ^d e |!pp! f3 ^B | %63
w: Ton beau|front vient se|re- po-|
[Q:1/4=112]"_a tempo"[Q:1/4=112]"^a tempo" c2- c z |!pp! z"^sotto voce." c =d e | c2- c z | %66
w: ser _|Sens- tu mon|cœur, _|
 z c d3/2 e/ |!>(! (d>c)!>)! c2 |!mp! z"^cresc." f f2- | f2 z B | %70
w: comme il pal-|pi- * te?|Le tien,|_ comme|
 c ^d[Q:1/4=100]"^T""^dim." !breath!e3/2!f! f/ |[Q:1/4=112]"_a tempo""^dim." g4- | %72
w: il bat- tait gaie-|ment!|
"^portez la voix" (g4 |!p!"^portez\n la voix""^dim." (_B4) | %74
w: _||
!pp![Q:1/4=112]"_a tempo"[Q:1/4=112]"^a tempo" f3) e | !breath!d3 F | (G>F) G3/2 A/ | %77
w: Je m'en|vais pour-|tant, * ma pe-|
 (F2 F/) z/!p! A |"^cresc." e2 z c | d2- d/ z/ A | ^G3 =f |!f! e4- | e2- e z | z4 |!f! d z A z | %85
w: ti- te, Bien|loin, bien|vi- te, Tou-|jours, t'ai-|mant!|_ _||Paf! paf!|
 f z d F | G A- (3A B c | d2- d z |!p! A2 (Bc/) z/ | d2 d2 | f2!>(! e3/2 B/!>)! | c4 | %92
w: paf! c'est mon|che- val * qu'on ap-|prê- te;|En- fant, *|que ne|puis- je~en che-|min|
"^quasi scherzando" .d2!p! .A2 |!>(! (f2!>)! d2) |{cd} c3/2 B/ c3/2 e/ | d2 A z | %96
w: Em- por-|ter _|ta mau- vai- se|tê- te|
"^con amore" f2 e2 |!<(! A2 B d!<)! |!>(! c3 B!>)! | A2- A z | %100
w: Qui m'a|tant em- bau-|mé la|main! _|
"_presque retenu"[Q:1/4=100]"^T"!p!"^dolce"{_B=c} _B3/2 A/ B-B/ z/ | _B =c d3/2 e/ | %102
w: Tu sou- ris, *|pe- tite hy- po-|
!>(! (e3!>)! =f) | A4 |!p! G2 ^F G |"^cresc." A- !breath!A/ z/ (3_B =c d | %106
w: cri- *|te,|Com- me la|nymphe, * en t'en- fu-|
[Q:1/4=112]"^a tempo" e4- |"^portez la voix" (e4 | ^f3)!p! e | d3 F | (G>F) G3/2 A/ | F2- F/ z/ A | %112
w: yant;|_|Je m'en|vais pour-|tant, * ma pe-|ti- te, Bien|
"^cresc." e2 z c | d2- d/ z/ A | (Bc)[Q:1/4=100]"^T" (de) |!f! f4- | f2- f z | %117
w: loin, bien|vi- te, Tout|en * ri- *|ant.|_ _|
!ff!"^a piacere" z2 e3/2 f/ | g f2- f/ e/ |[Q:1/4=112]"^a tempo" d4- | d2 z2 | z4 | z4 | %123
w: Je m'en|vais en _ ri-|ant!|_|||
 z4[Q:1/4=100]"_T" | z4 |"^plus lent" z!p![Q:1/4=90]"^T" A A G | G =F!<(! G3/2 A/!<)! | %127
w: ||Que de tris-|tesse et que de|
!>(! A2!>)! _B2 | z2 =B =B | =c2- c z |!<(! ^c d!<)!!>(! G3/2 _B/!>)! | A4- | A2 z2 | z4 | %134
w: char- mes,|Tendre en-|fant, _|dans tes doux a-|dieux!|_||
!<(! e3!<)! =f |!>(! =f4!>)! | =c2 z2 | z2!>(! _d2 | =c3!>)! _B |!>(! _B2!>)! A2 | %140
w: Tout m'en-|i-|vre,|Jus-|qu'a tes|lar- mes!|
!pp! =c2[Q:1/4=92]"^T""^cresc." c c | B3[Q:1/4=96]"^T" B | =c3 c |[Q:1/4=98]"^T" B2 z B | d4 | %145
w: Lors- que ton|coeur est|dans tes|yeux, A|vi-|
[Q:1/4=100]"^T" ^c2 ^G3/2 G/ |[Q:1/4=102]"^T" d3 d | d2 c z |[Q:1/4=104]"^T" =e2 e e | %149
w: vre ton re-|gard m'in-|vi- te;|Il me con-|
[Q:1/4=106]"^T" ^d2[Q:1/4=108]"^T" d2 |[Q:1/4=110]"^T" !breath!f3 f |[Q:1/4=115]"^T" =f4- | =f4- | %153
w: so- le-|rait mou-|rant!|_|
"^portez la voix" (=f4 |!f![Q:1/4=112]"_1° tempo"[Q:1/4=112]"^1° tempo" ^f3) =e | d3 F | %156
w: |Je m'en|vais pour-|
 (G>F) G3/2 A/ | F2- F/ z/ A | e2 z c | d2- d/ z/ A |[Q:1/4=108]"^T""^dim." (Bc) (de) | %161
w: tant, * ma pe-|ti- te, Bien|loin, bien|vi- te, Tout|en * pleu- *|
!f!!<(! f4- | f4-!<)! |"^long." !fermata!f2- f-!f! f/"_sempre" z/ | %164
w: rant!|_||
"^con molto anima."[Q:1/4=95]"^T" g2 f3/2 e/ |"^portez la voix" (_B4 |!pp! f2) e3/2 d/ | F2- F z | %168
w: Que notre a-|mour,|si tu m'ou-|bli- es,|
 z!<(! A!<)! _B/ z/!<(! A | c!<)!!>(! =B A G!>)! | F/ z/ =c!<(! B A | ^G A B3/2 A/!<)! | %172
w: Su- zon, dure|en- core un mo-|ment; Comme un bou-|quet de fleurs pâ-|
!p!"^dim." a4- | a/!pp! z/[Q:1/4=75]"^T""^dim." A B c | d2!<(! e3/2!<)! =f/ |!>(! ^f3!>)! ^G | %176
w: li-|es, Ah! ca- che–-|le dans ton|sein char-|
[Q:1/4=82]"^a tempo\nAndantino" A4- | A2 z"^tristement"!p! A | _B2 z A | _B =c d3/2 e/ | %180
w: mant!|_ A-|dieu, le|bon- heur reste au|
!>(! (e3!>)! =f) | A2 z2 |[Q:1/4=86]"^T""^cresc." G2 ^F[Q:1/4=90]"^T" G | %183
w: gî- *|te;|Le sou- ve-|
 !breath!A[Q:1/4=98]"^T" _B- (3B =c d |[Q:1/4=105]"^T"!<(! e4- |"^portez la voix" (e4!<)! | %186
w: nir part * a- vec|moi.|_|
[Q:1/4=112]"_1° tempo"[Q:1/4=112]"^1° tempo" ^f3)!p! e | d2 F2 |{/A} (G>F) G3/2 A/ | %189
w: Je l'em-|por- te-|rai, * ma pe-|
 F2- F/ z/"^cresc." A | e2 z c | d2- d/ z/ A | (Bc) (de) |!f! =f4- | =f2"^con lagrime"!mf! z d | %195
w: ti- te, Bien|loin, bien|vi- te, Tou-|jours * à *|toi!|_ a-|
[Q:1/4=105]"^T""^dim." =f2 z!p! d |[Q:1/4=95]"^T" =f2 z!pp! d |[Q:1/4=90]"^T" =f4- | %198
w: dieu, Su-|zon, a-|dieu!|
 =f z!ff!"^deciso." !fermata!z[Q:1/4=112]"^a tempo." d |[Q:1/4=112]"_a tempo." a4- | %200
w: _ Tou-|jours|
 !fermata!a3 c | d4- | d2 z2 | z4 | z4 | z4 | z4[Q:1/4=106]"^T" |[Q:1/4=100]"^T" z4[Q:1/4=90]"^T" | %208
w: _ à|toi!|_||||||
[Q:1/4=80]"^T" z4 | z4 |] %210
w: ||
V:2
 x4 | x4 | x4 | x4 | x4 | x4 | x4 | x4 | x4 | x4 | x4 | x4 | x4 | x4 | x4 | x4 | x4 | x4 | x4 | %19
 x4 | x4 | x4 | x4 | x4 | x4 | x4 | x4 | x4 | x4 | x4 | x4 | x4 | x4 | x4 | x4 | x4 | x4 | x4 | %38
 x4 | x4 | x4 | x4 | x4 | x4 | x4 | x4 | x4 | x4 | x4 | x4 | x4 | x4 | x4 | x4 | x4 | x4 | x4 | %57
 x4 | x4 | x4 | x4 | x4 | x4 | x4 | x4 | x4 | x4 | x4 | x4 | x4 | x4 | x4 | x4 | x4 | x4 | x4 | %76
 x4 | x4 | x4 | x4 | x4 | x4 | x4 | x4 | x4 | x4 | x4 | x4 | x4 | x2 (5:2:5(d!<(!edcd)!<)! | x4 | %91
 x4 | x4 | x4 | x4 | x4 | x4 | x4 | x4 | x4 | x4 | x4 | x4 | x4 | x4 | x4 | x4 | x4 | x4 | x4 | %110
 x4 | x4 | x4 | x4 | x4 | x4 | x4 | x4 | x4 | x4 | x4 | x4 | x4 | x4 | x4 | x4 | x4 | x4 | x4 | %129
 x4 | x4 | x4 | x4 | x4 | x4 | x4 | x4 | x4 | x4 | x4 | x4 | x4 | x4 | x4 | x4 | x4 | x4 | x4 | %148
 x4 | x4 | x4 | x4 | x4 | x4 | x4 | x4 | x4 | x4 | x4 | x4 | x4 | x4 | x4 | x4 | x4 | x4 | x4 | %167
 x4 | x4 | x4 | x4 | x4 | f4 | e/ x7/2 | x4 | x4 | x4 | x4 | x4 | x4 | x4 | x4 | x4 | x4 | x4 | %185
 x4 | x4 | x4 | x4 | x4 | x4 | x4 | x4 | x4 | x4 | x4 | x4 | x4 | x4 | e4- | !fermata!e3 ^f | x4 | %202
 x4 | x4 | x4 | x4 | x4 | x4 | x4 | x4 |] %210
V:3
 (3.F,.D.A, (3.F.D.A, |"_dim." (3.F,.D.A, (3.F.D.A, | (3.F,.D.A, (3.F.D.A, | (3.F,.D.A, (3.F.D.A, | %4
 (3.F,.D.A, (3.F.D.A, | (3.F,.D.A, (3.F.D.A, | (3.G,.C.A, (3.G.C.A, | (3.F,.D.A, (3.F.D.A, | %8
 (3.E,.C.A, (3E.C.A, |!<(! (3.F,.D.A, (3.F.D.A,!<)! |!mf! (3.G,.D.B, (3.G.E!>(!.B, | %11
 (3.^A,.F.C (3.G.C.=A,!>)! | (3.F,.D.A, (3.F.D.A, | (3.F,.D.A, (3.F.D.A, | (3.G,.C.A, (3.G.C.A, | %15
 (3.F,.D.A, (3.F.D.A, | (3z .A,.[DF] (3z .A,.[EA] | (3z!<(! .A,.[CF] (3z .B,.[DF]!<)! | %18
!>(! (3z .^G,.[DE] (3z .G,!>)!.[DE] | (3z .A,.[CE]"_dim." (3A.[CE].A, | (3(_B,=FD (3_BFD) | %21
 (3(_B,E=C (3_BEC) | (3(_B,E=C (3_BEC) | (3(A,=F=C (3AFC) | (3z (_B,!<(!^C (3GCB,) | %25
 (3z (_B,D (3GDB,)!<)! | (3z .A,.[EG] (3z"_cresc." .^A,.[EG] | (3z .=B,.[EG] (3z .=C.[EG] | %28
 (3.^C.G.C (3.A.G.C | (3.A,.F.D (3.A.F.D | (3.A,G.C (3.A.G.C | (3.A,.F.D (3.A.F.D | %32
 (3.A,G"_cresc.".C (3.A.G.C | (3.A,.F.D (3.A.F.D | (3.A,.G.E"_dim." A z | (3(B,D=F (3Bd=f | %36
 (3b=fd (3B=FD | (3B,D=F (3Bd=f | (3b=fd (3Bdf | (3b=fd (3Bdf | %40
 b) z"^colla -           -voce.-     -      -      -      -" z2 |!p! !tenuto!.[E=GAd]2 z2 | %42
"_cresc." !tenuto!.[EGAc]2 z2 |!ff! [D^FAd]>f f>a | [dfa]>f (3fdA | [Adf]>d (3dAF | [FAd]>A (3AFA | %47
 (3D (F,F"^dim." (3F,FF, | (3FF,F (3F,FF, | (3FF,F (3F,FF,) | (3z ([^G,^E]F) (3z ([^A,=E]F) | %51
 (3z (F,D (3B,FD) | (3z (F,D!>(! (3B,FD)!>)! | (3z (F,[CF]) (3z (F,[^G,D]) | %54
 (3z (F,[A,C]) (3z (B,[C^E]) | (3z (A,C!p! (3FB,A,) | (3(F,!p!B,^G, (3FB,G,) | (3(F,CA, (3FB,A,) | %58
 (3(F,D^G, (3FDG,) | (3(F,CA, (3FB,A,) | (3z!<(! (A,C (3[^DA]B,A,)!<)! | %61
 (3z"^colla voce"!>(! (^G,C [^E^G]2)!>)! |!pp! !tenuto!.[^B,F^G]2 z2 | (3.C.^G!pp!.^E (3.c.F.E | %64
 (3.C.=G.=E (3.c.F.E | (3.C.F.E (3.cF.E | (3.C.B.E (3.c.B.E | (3.C.^A.E (3.c.B.E | %68
"_cresc." (3.=C.=A.F (3.=c.G.F | (3.B,.A.F (3.B.G.F |!mf! [^DAB]"_colla voce." z z2 | %71
!f!!<(! [B,EG]2 (3(EFB!<)! |!<(! (3ef!<)!b!ff! !arpeggio![g_b=d']) z |"_colla voce." z4 | %74
 (3.A,.G.C (3.A.F.C | (3.A,.F.D (3.A.E.D | (3.A,.G.C (3.A.F.C | (3.A,.F.D (3.A.E.D | %78
 (3.A,.G"_cresc.".C (3.A.F.C | (3.A,.F.D (3.A.E.D | (3.B,.=F.D ^G z | %81
!f! (3([C=GA].^A).A (3([CGA].A).B |"_cresc." (3([GB].^B).B (3([GB].B).c | (3.[Gc].e.c!ff! [Aa] z | %84
!mf! (3.F.d.A (3.f.c.A | (3.F.d.A (3.f.c.A | (3.G.c.A (3.g.B.A | (3.F.d.A (3.f.c.A | (3(EcA (3eBA | %89
 (3FdA (3fcA | (3GdB (3gdB | (3^Afc (3gB=A | (3.F).d.A (3.f.c.A | (3.F.d.A (3.f.c.A | %94
 (3.G.c.A (3.g.B.A | (3.F.d.A (3.f.c.A |!pp! (3z .F.A (3z .D.A | (3z!<(! .C.[FA] (3z .D.[FB]!<)! | %98
 (3z!>(! .D.[E^G] (3z .^G,.[DE]!>)! | (3z .A,.[CE] (3A"_dim.".[CE].A, | %100
"_presque retenu" (3(_B,=FD (3_BFD) | (3(_B,E=C (3_BEC) | (3(_B,E=C (3_BEC) | (3(A,=F=C (3AFC) | %104
 (3z (_B,^C (3GCB,) | (3z!<(! (_B,D (3GDB,)!<)! | (3z .A,.[EG] (3z"_cresc." .^A,[EG] | %107
 (3z .=B,.[EG] (3z .=C[EG] | (3.^C.G.C (3.A.G.C | (3.A,.F.D (3.A.F.D | (3.A,G.C (3.A.G.C | %111
 (3.A,.F.D (3.A.F.D | (3.A,G.C (3.A.G.C | (3.A,.F.D (3.A.F.D | (3.B,.E.C"_dim." A z | %115
 [CF^A]2 (3(F,^A,"_cresc."C | (3F^Ac f) z |!ff! [G_Bdeg]2 z2 | [EG=Ac]2 z2 | [DFAd]>f f>a | %120
 [dfa]>f (3fdA | [Adf]>d (3dAF | [FAd]>A (3AFA | (3D (=FD!p!"_dim." (3A,"^dim."=F,A,) | %124
 (3(D=FD (3A,=F,A,) |"^dim." (3(D=FD (3A,=F,A,) | (3(D=FD (3A,=F,A,) | (3(D=FD (3A,=F,A,) | %128
 (3(D=FD (3G,=F,G,) | (3(=C=FC (3=G,=F,G,) | (3(_B,EB, (3G,E,G,) | %131
"_bien marqué." (3(A,=C=F (3AFC) |"_espress." (3(A,=C=F (3AFC) | (3(_B,_DG (3_BGD) | %134
 (3(_B,_DG (3_BGD) | (3(A,=C=F (3AFC) | (3(A,=C=F (3AFC) | (3(_B,_DG (3_BGD) | (3(_B,_DG (3_BGD) | %139
 (3(_B,=C=F (3AFC) |"^cresc." (3(A,=E=C (3AEC) | (3(A,^DB, (3ADB,) | (3(A,E=C (3AEC) | %143
!p! (3(A,^DB, (3ADB,) | (3(B,^E=D (3BED) | (3(B,^E^C (3BEC) |!mp! (3(B,^ED (3BED) | %147
 (3(B,^EC (3BEC) | (3(C=G=E (3cGE) |!mf! (3(C^^F^D (3cFD) | (3(^D=A^F (3^dAF | %151
!f! [_E=FA_e])!f!!>![EFA]"_cresc."!>![EFA]!>![EFA] |!f! !>![_E=FA]!f!!>![EFA]!f!!>![EF_A]!>![EFA] | %153
!f! !>![D=F^G]!f!!>![DFG]!f!!>![DFG]!f!!>![DFG] |!pp! (3[=A,^C=G=A] .G.C (3.A.G.C | %155
 (3.A,FD (3.AFD | (3.A,.G.C (3.A.G.C | (3.A,.F.D (3.A.F.D | (3.A,"_cresc.".G.C (3.A.G.C | %159
 (3.A,.F.D (3.A.F.D | (3.B,.E.C [EB]"_cédez" z | [CF^A]2 (3(F,^A,C |"_cresc." (3F^Ac (3f^ac' | %163
 f')"_attendez" z z2 |!f!"^dim." [_B,DG_B]4- | [B,DGB] z!pp! [_B,DG_B]2 | [A,DFA]4- | %167
 [A,DFA] z [A,DFA]2 | [G,A,C]4- | [G,A,C] z z2 |"_cresc." (^D4 | [A,^DF]2 [^B,FA]2 |!p! [CEAc]4-) | %173
 [CEAc] z z2 |"^colla voce" !tenuto!.[A,B,D=F]2 z2 | !tenuto!.^G,2 z2 | .A,!pp!(.A,.A,.A, | %177
!pp! .A,!pp!!pp!.A,.A,.A,) | (3(_B,=FD (3_BFD) | (3(_B,E=C (3_BEC) | (3(_B,E=C (3_BEC) | %181
 (3(A,=F=C (3AFC) | (3z (_B,^C (3GC!<(!B,) | (3z (_B,D (3GDB,)!<)! | %184
 (3z .A,.[EG] (3z"_cresc." .^A,.[EG] | (3z .=B,.[EG] (3z .=C.[EG] | (3.^C.G.C (3.A.G.C!pp! | %187
 (3.A,.F.D (3.A.F.D | (3.A,.G.C (3.A.G.C | (3.A,.F.D (3.A.F.D | (3.A,.G"_cresc.".C (3.A.G.C | %191
 (3.A,.F.D (3.A.F.D | (3.A,.G.E"_cédez" A z | (3(B,D=F (3Bd=f | (3b=fd (3B=FD) | (3(B,D=F (3Bd=f | %196
 (3b=fd (3Bdf) | (3b=fd (3Bdf | b z !fermata!z2 |!ff! [de=ga]2 z2 | [EGAc]2 !fermata!z2 | %201
 [D^FAd]>f f>a | [dfa]>f (3fdA | [Adf]>d (3dAF | [FAd]>A (3AFA | D!mp! z!>(! ([B,DF]A,)!>)! | %206
 z2!>(! ([B,DF]A,)!>)! | z2"^calando."!>(! ([G,A,D]F,)!>)! |[K:bass] z2!>(! [E,F,A,]D,!>)! | z4 |] %210
V:4
!ff! (3.D,,.A,,.D, (3.F,.D,.A,, | (3.D,,.A,,.D, (3.F,.D,.A,, | (3.D,,.A,,.D, (3.F,.D,.A,, | %3
 (3.D,,.A,,.D, (3.F,.D,.A,, |!p! (3.D,,.A,,.D, (3.F,.D,.A,, | (3.D,,.A,,.D, (3.F,.D,.A,, | %6
 (3.D,,.A,,.C, (3.G,.C,.A,, | (3.D,,.A,,.D, (3.F,.D,.A,, | (3.C,,.A,,.C, (3.E,.C,.A,, | %9
 (3.B,,,.F,,.B,, (3.D,.B,,.F,, | (3.E,,.B,,.E, (3.C,,.B,,.E, | (3.F,,.^A,,.C, (3.E,,.=A,,.C, | %12
!p! (3.D,,.A,,.D, (3.F,.D,.A,, | (3.D,,.A,,.D, (3.F,.D,.A,, | (3.D,,.A,,.C, (3.G,.C,.A,, | %15
 (3.D,,.A,,.D, (3.F,.D,.A,, | D, z C, z | F, z B,, z | E, z E,, z | A,,2 z2 |!pp! (=G,4 | =C,4 | %22
 =F,4 | =F,,2-) F,, z | (E,4 | D,4 | ^C,2) !>!=C,2 | !>!=B,,2 !>!_B,,2 | %28
!ff! !>!A,,!pp!"_legg." z [A,,C,G,] z | [A,,,A,,] z [A,,D,F,] z | [A,,,A,,] z [A,,E,G,] z | %31
 [A,,,A,,] z [A,,D,F,] z | [A,,,A,,] z [A,,E,G,] z | [A,,,A,,] z [A,,D,F,] z | %34
 [A,,,A,,] z [A,,C,G,] z |!f!!ped! [^G,,D,=F,]4 |"_dim." [^G,D=F]4 | [^G,,D,=F,]4 | %38
"_rit." [^G,D=F]4 |!pp! [^G,D=F]4- | [G,DF]!ped-up! z z2 | !tenuto!.A,2 z2 | !tenuto!.[A,,A,]2 z2 | %43
!ped! (3D,,A,,D, (3F,D,A,, | (3D,,A,,D, (3F,D,A,, | (3D,,A,,D, (3F,D,A,, | (3D,,A,,D, (3F,D,A,, | %47
 D,,!ped-up! z z2 | z4 |!p! (D,4 | C,2 F,,2 | B,,2-) B,, z | (^G,,4 |!p! =A,,2 B,,2 | C,2 C,,2 | %55
 F,,2)!p! z2 | F,,2 z2 | F,,2 z2 | F,,2 z2 | F,,2 z2 | (F,,4 | ^G,,2) z2 | !tenuto!.[^G,,^G,]2 z2 | %63
 !tenuto!.[C,,C,]2 z2 | !>![=B,,=B,]z/C,/ C, z | !>![^A,,^A,]z/C,/ C, z | !>![=G,,=G,]z/C,/ C, z | %67
 !>![F,,F,]z/C,/ C, z | !>![E,,E,]z/F,,/ F,, z | !>![^D,,^D,]z/F,,/ F,, z | [B,,,B,,] z z2 | %71
!ped! (3(E,,F,,B,, E,) z | z2[K:treble] !arpeggio![EG_B=d]!ped-up! z | z4 | %74
[K:bass]!pp! [A,,,A,,] z [A,,C,G,] z | [A,,,A,,] z [A,,D,F,] z | [A,,,A,,] z [A,,E,G,] z | %77
 [A,,,A,,] z [A,,D,F,] z | [A,,,A,,] z [A,,E,G,] z | [A,,,A,,] z [A,,D,F,] z | %80
 [A,,,A,,] z [A,,B,,D,=F,] z |!ped! (3.A,,.C,.G, (3.A,.F,.C, | (3.A,,.C,.G, (3.A,.F,.C, | %83
 (3.A,,.C,.G, A,!ped-up! z | (3.D,.A,.D (3.F.C.A, | (3.D,.A,.D (3.F.C.A, | (3.D,.A,.C (3.G.C.A, | %87
 (3.D,.A,.D (3.F.C.A, |!p!!ped! (3(C,A,C (3ECA,!ped-up! |!ped! (3B,,A,D (3FDA,!ped-up! | %90
!ped! (3E,B,E!ped-up!!ped! (3C,B,E!ped-up! |!ped! (3F,^A,C!ped-up!!ped! (3E,=A,C!ped-up! | %92
 (3.D,).A,.D (3.F.C.A, | (3.D,.A,.D (3.F.C.A, | (3.D,.A,.C (3.G.C.A, | (3.D,.A,.D (3.F.C.A, | %96
 D z C z | F, z B,, z | E, z E,, z | A,,2 z2 |!pp! (=G,4 | =C,4 | =F,4 | =F,,2-) F,, z | (E,4 | %105
 D,4 | ^C,2) !>!=C,2 | !>!=B,,2 !>!_B,,2 |!ff! !>!F,,!pp!"_legg." z [A,,C,G,] z | %109
 [A,,,A,,] z [A,,D,F,] z | [A,,,A,,] z [A,,E,G,] z | [A,,,A,,] z [A,,D,F,] z | %112
 [A,,,A,,] z [A,,E,G,] z | [A,,,A,,] z [A,,D,F,] z | [G,,,G,,] z [G,,C,G,] z | %115
!ped! (3(F,,,^A,,,C,, (3F,,^A,,C, | (3F,^A,C F)!ped-up! z | [E,,E,]2"^colla voce" z2 | %118
 [=A,,,=A,,]2 z2 |!ff!!ped! (3D,,A,,D, (3F,D,A,, | (3D,,A,,D, (3F,D,A,, | (3D,,A,,D, (3F,D,A,, | %122
 (3D,,A,,D, (3F,D,A,, | D,,!ped-up!!p! z z2 | z4 | D,4- | D,4 | G,,4- | G,,4 | =C,4- | =C,4 | %131
 =F,,4- | =F,,4 | =F,,4- | F,,4 |!ped! =F,,4- | =F,,4!ped-up! |!ped! =F,,4- | =F,,4 | %139
 =F,,2-!ped-up! F,, z |!pp! =F,4 | (^F,2 B,,2 | =F,4) | (^F,2 B,,2 | =G,4) | (^G,2 C,2 | =G,4) | %147
 (^G,2 C,2 | A,4) | (^A,2 ^D,2 | B,4) | !>![=C,=C]!>![C,=F,C]!>![C,F,C]!>![C,F,C] | %152
 !>![B,,=F,B,]!>![B,,F,B,]!>![B,,F,B,]!>![B,,F,B,] | %153
 !>![B,,=F,B,]!>![B,,B,]!>![_B,,_B,]!>![B,,B,] | [=A,,,=A,,] z [A,,^C,=G,] z | %155
 [A,,,A,,] z [A,,D,F,] z | [A,,,A,,] z [A,,E,G,] z | [A,,,A,,] z [A,,D,F,] z | %158
 [A,,,A,,] z [A,,E,G,] z | [A,,,A,,] z [A,,D,F,] z | [G,,,G,,] z [G,,C,G,] z | %161
!ped! (3(F,,,^A,,,C,, (3F,,^A,,C, | (3F,^A,C[K:treble] (3F^Ac | f)!ped-up! z z2 | %164
[K:bass] [E,G,]4- | [E,G,] z [E,G,]2 | [A,,D,F,]4- | [A,,D,F,] z [A,,D,F,]2 | [A,,E,]4- | %169
 [A,,E,] z z2 | [F,A,]4 | ^B,,2 ^D,2 | [E,,E,]4- | [E,,E,] z z2 |!p! !tenuto!.E,2 z2 |!pp! D,2 z2 | %176
 C,2 z2 | z4 |!pp! (=G,4 | =C,4 | =F,4 | =F,,2-) F,, z |"_cresc." (E,4 | D,4 | ^C,2) !>!=C,2 | %185
 !>!=B,,2 !>!_B,,2 |!ff! !>!A,, z"_legg." [A,,C,G,] z | [A,,,A,,] z [A,,D,F,] z | %188
 [A,,,A,,] z [A,,E,G,] z | [A,,,A,,] z [A,,D,F,] z | [A,,,A,,] z [A,,E,G,] z | %191
 [A,,,A,,] z [A,,D,F,] z | [A,,,A,,] z [A,,C,G,] z |!f!!ped! [^G,,D,=F,]4 |"_dim." [^G,D=F]4 | %195
 [^G,,D,=F,]4 | [^G,D=F]4 |!pp! [^G,D=F]4- | [^G,D=F]!ped-up! z !fermata!z2 | [A,,A,]2 z2 | %200
 [A,,,A,,]2 !fermata!z2 |!ff!!ped! (3D,,A,,D, (3F,D,A,, | (3D,,A,,D, (3F,D,A,, | %203
 (3D,,A,,D, (3F,D,A,, | (3D,,A,,D, (3F,D,A,, |"_dim." (3.D,,.A,,.D,!p! .F, z | %206
!pp! (3.D,,.A,,"_dim.".D, .F, z |!pp! (3.D,,.A,,.D,"_smorz." z2 |!pp! (3.D,,.A,,.D, z2 | %209
!ppp! D,, z z2!ped-up! |] %210
V:5
 x4 | x4 | x4 | x4 | x4 | x4 | x4 | x4 | x4 | x4 | x4 | x4 | x4 | x4 | x4 | x4 | x4 | x4 | x4 | %19
 x4 | x4 | x4 | x4 | x4 | x4 | x4 | x4 | x4 | x4 | x4 | x4 | x4 | x4 | x4 | x4 | x4 | x4 | x4 | %38
 x4 | x4 | x4 | x4 | x4 | x4 | x4 | x4 | x4 | x4 | x4 | x4 | x4 | x4 | x4 | x4 | x4 | x4 | x4 | %57
 x4 | x4 | x4 | x4 | x4 | x4 | x4 | x4 | x4 | x4 | x4 | x4 | x4 | x4 | x4 | x[K:treble] x3 | x4 | %74
[K:bass] x4 | x4 | x4 | x4 | x4 | x4 | x4 | x4 | x4 | x4 | x4 | x4 | x4 | x4 | x4 | x4 | x4 | x4 | %92
 x4 | x4 | x4 | x4 | x4 | x4 | x4 | x4 | x4 | x4 | x4 | x4 | x4 | x4 | x4 | x4 | x4 | x4 | x4 | %111
 x4 | x4 | x4 | x4 | x4 | x4 | x4 | x4 | x4 | x4 | x4 | x4 | x4 | x4 | x4 | x4 | x4 | x4 | x4 | %130
 x4 | x4 | (=F,3 E, | E,2!>(! _D,2 | _B,,2 G,,2!>)! | A,,2!<(! =C,2 | =F,2!<)! A,2 | x2!>(! G,2 | %138
 E,2!>)! _D,2 | =C,2-) C, x | (=F,,4 | ^F,,4) | (=F,,4 | ^F,,4) | (=G,,4 | ^G,,4) | (=G,,4 | %147
 ^G,,4) | (A,,4 | ^A,,4) | B,,4 | x4 | x4 | x4 | x4 | x4 | x4 | x4 | x4 | x4 | x4 | x4 | %162
 x2[K:treble] x2 | x4 |[K:bass] x4 | x4 | x4 | x4 | x4 | x4 | B,,4 | x4 | x4 | x4 | x4 | %175
 !tenuto!.E,,2 x2 | !tenuto!.[A,,,A,,]2 x2 | x4 | x4 | x4 | x4 | x4 | x4 | x4 | x4 | x4 | x4 | x4 | %188
 x4 | x4 | x4 | x4 | x4 | x4 | x4 | x4 | x4 | x4 | x4 | x4 | x4 | x4 | x4 | x4 | x4 | x4 | x4 | %207
 x4 | x4 | x4 |] %210
V:6
 x4 | x4 | x4 | x4 | x4 | x4 | x4 | x4 | x4 | x4 | x4 | x4 | x4 | x4 | x4 | x4 | x4 | x4 | x4 | %19
 x4 | x4 | x4 | x4 | x4 | x4 | x4 | x4 | x4 | x4 | x4 | x4 | x4 | x4 | x4 | x4 | x4 | x4 | x4 | %38
 x4 | x4 | x4 | x4 | x4 | x4 | x4 | x4 | x4 | x4 | x4 | x4 | x4 | x4 | x4 | x4 | x4 | x4 | x4 | %57
 x4 | x4 | x4 | x4 | x4 | x4 | x4 | x4 | x4 | x4 | x4 | x4 | x4 | x4 | x4 | x4 | x4 | x4 | x4 | %76
 x4 | x4 | x4 | x4 | x4 | x4 | x4 | x4 | x4 | x4 | x4 | x4 | x4 | x4 | x4 | x4 | x4 | x4 | x4 | %95
 x4 | x4 | x4 | x4 | x4 | x4 | x4 | x4 | x4 | x4 | x4 | x4 | x4 | x4 | x4 | x4 | x4 | x4 | x4 | %114
 x4 | x4 | x4 | x4 | x4 | x4 | x4 | x4 | x4 | x4 | x4 | x4 | x4 | x4 | x4 | x4 | x4 | x4 | x4 | %133
 x4 | x4 | x4 | x4 | _B,2 x2 | x4 | x4 | x4 | x4 | x4 | x4 | x4 | x4 | x4 | x4 | x4 | x4 | x4 | %151
 x4 | x4 | x4 | x4 | x4 | x4 | x4 | x4 | x4 | x4 | x4 | x4 | x4 | x4 | x4 | x4 | x4 | x4 | x4 | %170
 x4 | x4 | x4 | x4 | x4 | x4 | x4 | x4 | x4 | x4 | x4 | x4 | x4 | x4 | x4 | x4 | x4 | x4 | x4 | %189
 x4 | x4 | x4 | x4 | x4 | x4 | x4 | x4 | x4 | x4 | x4 | x4 | x4 | x4 | x4 | x4 | x4 | x4 | x4 | %208
[K:bass] x4 | x4 |] %210

